X:25
T:January Waltz
M:3/4
L:1/4
Q:1/4=140
C:Taz Tarry
S:Copyright B.Tarry, 16th. August 1992
R:Waltz
K:G
|:B|BAd|d2c/2B/2|AGA|AGA|e2d/2c/2|BAG|ABA|1d2 :|2G3||
GA_B|_BAG|=FD/F/D|DCD|=F3/2A/_B|_BAG|Bcd|e3|
ede|e3/2d/c|BAB|BAG|FAd|ecA|ABA|G2|]

